!!!COM: Felix Mendelssohn
!!!CNT: Deutsch
!!!TXO: Deutsch
!!!OTL:Altdeutsches Lied
!!!LYR: Heinrich Schreiber
!!!OPS: Op. 57
!!!ONM: No. 1
!!!ENC: Daniel Alt & Leigh VanHandel
!!!YOR: Sa2mmtliche Lieder fu2r eine Singstimme 
!!!YOR: Neu revidirt von Dr. L. Benda, Ausgabe fu2r mittlere Stimme
!!!YOR: Braunschweig. Henry Litolff's Verlag. Boston and New York: Arthur P. Schmidt.
!!!ODT: 1839/
**kern	**silbe
*staff1	*
=1-	=1
*clefG2	*
*k[f#c#g#d#]	*
*M6/8	*
{4b	{Es
8cc#	ist
4b	in
8ee	den
=2	=2
4b	Wald
8cc#	ge-
8b	-sun-
4g#	-gen,
=3	=3
8e	wenn
8f#	|
8g#	ich
8b	der
8a	|
8g#	mein
=4	=4
8f#	Lei-
8a	|
8g#	-den
4g#	sa-
8f#}	-ge,}
=5	=5
{4b	{die
8cc#	mein
4b	Herz
8ee	mir
=6	=6
4b	hat
8cc#	be-
8b	-zwun-
4g#	-gen;
=7	=7
8ee	sie
8dd#	|
8cc#	ho2rt
4ccn	nicht
8cc	auf
=8	=8
8cc#	mei-
8b	|
8a	-ne
[4.g#	Kla-
=9	=9
4.g#_	|
4g#]}	-ge.}
8r	.
=10	=10
{4ee	{Mir
8ddn	ist
4cc#	wie
8cc#	der
=11	=11
8cc#	NAch-
8ddn	|
8b	-ti-
4.a}	-gall,}
=12	=12
{8f#	{die
8g#	|
8a	so
4cc#	viel
8b	ver-
=13	=13
8a	geb-
8b	|
8cc#	-lich
4ee	sin-
8dd#}	-get,}
=14	=14
{8ee	{und
8g#	|
8cc#	ihr
4a#	doch
8b	am
=15	=15
8ee	En-
8g#	|
8cc#	de
4a#	brin-
8b	-get
=16	=16
8e	lau-
8f#	|
8g#	-ter
8b	Schmerz
8a	|
8g#	ihr
=17	=17
8f#	su2-
8a	|
8g#	-sser
4.e}	Schall,}
=18	=18
{8ee	{und
8g#	|
8cc#	ihr
4a#	doch
8b	am
=19	=19
8ee	En-
8g#	|
8cc#	-de
4a#	brin-
8b	-get
=20	=20
8e	lau-
8f#	|
8g#	-ter
8b	Schmerz
8a	|
8g#	ihr
=21	=21
8f#	su2-
8a	|
8g#	-sser
4.e}	Schall.}
==	==
*-	*-

